build/category/ProductsSolid.svg

<svg xmlns="http://www.w3.org/2000/svg" fill="none" viewBox="0 0 24 24" focusable="false"><path d="M0 0H24V24H0z"/><path fill="#74767B" fill-rule="evenodd" d="M9.7002 4L5.2998 4C4.58203 4 4 4.58203 4 5.30005L4 7.69995C4 8.41797 4.58203 9 5.2998 9L9.7002 9C10.418 9 11 8.41797 11 7.69995L11 5.30005C11 4.58203 10.418 4 9.7002 4ZM13.5996 4L18 4C18.7178 4 19.2998 4.58203 19.2998 5.30005L19.2998 10.3999C19.2998 11.1179 18.7178 11.7 18 11.7L13.5996 11.7C12.8818 11.7 12.2998 11.1179 12.2998 10.3999L12.2998 5.30005C12.2998 4.58203 12.8818 4 13.5996 4ZM9.7002 10.3L5.2998 10.3C4.58203 10.3 4 10.8821 4 11.6001L4 18C4 18.718 4.58203 19.3 5.2998 19.3L9.7002 19.3C10.418 19.3 11 18.718 11 18L11 11.6001C11 10.8821 10.418 10.3 9.7002 10.3ZM18 13L13.5996 13C12.8818 13 12.2998 13.582 12.2998 14.3L12.2998 18C12.2998 18.718 12.8818 19.3 13.5996 19.3L18 19.3C18.7178 19.3 19.2998 18.718 19.2998 18L19.2998 14.3C19.2998 13.582 18.7178 13 18 13Z"/></svg>

<svg xmlns="http://www.w3.org/2000/svg" fill="none" viewBox="0 0 24 24" focusable="false"><path fill="#74767B" fill-rule="evenodd" d="M9.7 4H5.29C4.58 4 4 4.58 4 5.3v2.39C4 8.41 4.58 9 5.29 9H9.7c.71 0 1.3-.59 1.3-1.31V5.3c0-.72-.59-1.3-1.3-1.3m3.89 0H18c.71 0 1.29.58 1.29 1.3v5.09c0 .72-.58 1.31-1.29 1.31h-4.41c-.71 0-1.3-.59-1.3-1.31V5.3c0-.72.59-1.3 1.3-1.3M9.7 10.3H5.29c-.71 0-1.29.58-1.29 1.3V18c0 .71.58 1.29 1.29 1.29H9.7c.71 0 1.3-.58 1.3-1.29v-6.4c0-.72-.59-1.3-1.3-1.3M18 13h-4.41c-.71 0-1.3.58-1.3 1.3V18c0 .71.59 1.29 1.3 1.29H18c.71 0 1.29-.58 1.29-1.29v-3.7c0-.72-.58-1.3-1.29-1.3"/></svg>
